X:1
T:L'Alouette
T:Folkesang fra Canada
%%score ( 1 2 )
L:1/8
M:2/4
K:G
V:1 treble nm="Voice"
V:2 treble 
V:1
"G" G3 A | B2 B2 |"D" A G A B |"G" G2 D2 | G3 A | B2 B2 |"D" A G A B |"G" G4 :|"G" G G G G | %9
w: |||||||||
 G B"D" d2 | d e d c | B A"G" G2 | d d d2 | z2 z2 | d d d2 | z2 z2 |"D7" d4- | d2 z2 |] %18
w: |||Et la têt'.||A- lou- ett'.||Ah!||
V:2
 B,3 C | G2 G2 | [DF] [DE] [CF] [CD] | B,2 B,2 | B,3 D | G2 G2 | [DF] [DE] [CF] [CD] | B,4 :| %8
w: A- lou-|et- te,|gen- til- le~A- lou-|et- te.|A- lou-|et- te,|je te plu- me-|rai.|
 G G G G | G B d2 | d e d c | B A G2 | z2 z2 | D D D2 | z2 z2 | D D D2 | [DF]4- | [DF]2 x2 |] %18
w: Je te plu- me-|rai la têt'.|Je te plu- me-|rai la têt'.||Et la têt'.||A- lou- ett'.|||

